X:6087
T:Skye Boat Song
O:england
M:6/8
L:1/8
R:Air
K:D
"D"A>BA d>cd|"A"e>fe a3|"D"f>ef "G"B2 B|"D"A3 A3|"D"A>BA d>cd|"A"e>fe a3
|"D"f>ef "G"B2 B|"D"A3 A3||
"D"f>df f3|"A"e>Be e3|"G"d>Bd d2 d|"Bm"B3 B3|"D"f>df f3|"A"e>Be e3|"G"d>
Bd d2 d|"Bm"B3 "A7"A3:||


